src/assets/icons/show.svg

<svg width="20" height="20" viewBox="0 0 20 20" fill="none" xmlns="http://www.w3.org/2000/svg">
<path fill-rule="evenodd" clip-rule="evenodd" d="M9.626 3.00008C13.3789 3.05417 16.4579 6.48248 18 9.43226C18 9.43226 17.4573 10.5606 16.9484 11.2829C16.7021 11.6323 16.443 11.9727 16.1707 12.302C15.9766 12.5364 15.7761 12.7646 15.5681 12.9864C13.7094 14.9698 11.04 16.4493 8.22122 15.8749C5.08975 15.2366 2.53539 12.5104 1 9.57831C1 9.57831 1.54516 8.44888 2.05695 7.72766C2.28623 7.4042 2.52687 7.08939 2.77886 6.78395C2.97194 6.54991 3.17212 6.32165 3.37903 6.09987C5.02125 4.34155 7.12842 2.98782 9.626 3.00008ZM9.61287 4.44252C7.52238 4.43458 5.78398 5.62063 4.40866 7.09299C4.22162 7.29313 4.04132 7.4994 3.8667 7.71071C3.63706 7.9891 3.41772 8.27651 3.20867 8.57113C2.99962 8.86538 2.78525 9.23681 2.61525 9.55234C3.96891 11.8635 6.00083 13.951 8.50054 14.4606C10.8299 14.9355 13.0038 13.6308 14.5399 11.9919C14.7276 11.7917 14.909 11.5851 15.0843 11.3734C15.3328 11.073 15.5691 10.7625 15.7938 10.4434C16.0018 10.1481 16.2158 9.77592 16.3855 9.46003C14.9807 7.07099 12.5772 4.4894 9.61287 4.44252Z" fill="black" fill-opacity="0.6"/>
<path fill-rule="evenodd" clip-rule="evenodd" d="M9.49994 6.61426C11.0705 6.61426 12.3457 7.90992 12.3457 9.50526C12.3457 11.101 11.0705 12.3963 9.49994 12.3963C7.92977 12.3963 6.65454 11.101 6.65454 9.50526C6.65454 7.90992 7.92977 6.61426 9.49994 6.61426Z" fill="black" fill-opacity="0.6"/>
</svg>

<svg xmlns="http://www.w3.org/2000/svg" width="20" height="20" fill="none"><path fill="#000" fill-opacity=".6" fill-rule="evenodd" d="M9.626 3c3.753.054 6.832 3.482 8.374 6.432 0 0-.543 1.129-1.052 1.85-.246.35-.505.69-.777 1.02a14.78 14.78 0 0 1-.603.684c-1.859 1.984-4.528 3.463-7.347 2.889C5.09 15.237 2.535 12.51 1 9.578c0 0 .545-1.13 1.057-1.85A16.24 16.24 0 0 1 3.379 6.1C5.021 4.342 7.129 2.988 9.626 3Zm-.013 1.443c-2.09-.008-3.829 1.178-5.204 2.65-.187.2-.368.406-.542.618-.23.278-.45.566-.658.86a9.874 9.874 0 0 0-.594.981c1.354 2.312 3.386 4.399 5.886 4.909 2.329.474 4.503-.83 6.039-2.47.188-.2.369-.406.544-.618.249-.3.485-.61.71-.93.208-.295.422-.667.591-.983-1.404-2.389-3.808-4.97-6.772-5.017Z" clip-rule="evenodd"/><path fill="#000" fill-opacity=".6" fill-rule="evenodd" d="M9.5 6.614c1.57 0 2.846 1.296 2.846 2.891 0 1.596-1.276 2.891-2.846 2.891s-2.845-1.295-2.845-2.89c0-1.596 1.275-2.892 2.845-2.892Z" clip-rule="evenodd"/></svg>
